X: 2022
T: Mr COMPTON OF COMPTON HALL
R: Reel.
%R: reel
N: This is version 1, for ABC software that doesn't understand annotation positioning.
B: James Kerr "Merry Melodies" v.2 p.5 #22
Z: 2016 John Chambers <jc:trillian.mit.edu>
M: C
L: 1/8
K: A
e |\
A2(cA) ecac | A2(cA) B=FFB |\
A2(cA) ecae | fded cAA ::\
ue |\
aece dfce |
aece fBB \
[1 g | aece dfce | (f/g/a) (ed) cAA :|\
[2 c | AEFG ABce | (f/g/a) (ed) cAA |]

%%sep 1 1 500
%%sep 1 1 500

